Origami/24x24/apps/scinotes.svg

<svg width="24" height="24" version="1" xmlns="http://www.w3.org/2000/svg">
 <path d="m20 21v-18c0-0.554-0.446-1-1-1h-14c-0.554 0-1 0.446-1 1v18c0 0.554 0.446 1 1 1h14c0.554 0 1-0.446 1-1z" style="fill:#e74c3c"/>
 <path d="m7 6.5v1h10v-1h-10zm0 2v1h9v-1h-9zm0 2v1h10v-1h-10zm0 2v1h8v-1h-8zm0 2v1h10v-1h-10zm0 2v1h8v-1h-8z" style="opacity:.2"/>
 <path d="m7 6v1h10v-1h-10zm0 2v1h9v-1h-9zm0 2v1h10v-1h-10zm0 2v1h8v-1h-8zm0 2v1h10v-1h-10zm0 2v1h8v-1h-8z" style="fill:#ffffff"/>
 <path d="m5 2c-0.554 0-1 0.446-1 1v0.5c0-0.554 0.446-1 1-1h14c0.554 0 1 0.446 1 1v-0.5c0-0.554-0.446-1-1-1z" style="fill:#ffffff;opacity:.2"/>
 <path d="m4 21v0.5c0 0.554 0.446 1 1 1h14c0.554 0 1-0.446 1-1v-0.5c0 0.554-0.446 1-1 1h-14c-0.554 0-1-0.446-1-1z" style="opacity:.2"/>
</svg>

<svg xmlns="http://www.w3.org/2000/svg" width="24" height="24" version="1">
 <path style="fill:#e74c3c" d="m20 21v-18c0-0.554-0.446-1-1-1h-14c-0.554 0-1 0.446-1 1v18c0 0.554 0.446 1 1 1h14c0.554 0 1-0.446 1-1z"/>
 <path d="m 7,6.5 0,1 10,0 0,-1 -10,0 z m 0,2 0,1 9,0 0,-1 -9,0 z m 0,2 0,1 10,0 0,-1 -10,0 z m 0,2 0,1 8,0 0,-1 -8,0 z m 0,2 0,1 10,0 0,-1 -10,0 z m 0,2 0,1 8,0 0,-1 -8,0 z" style="opacity:0.2"/>
 <path style="fill:#ffffff" d="M 7 6 L 7 7 L 17 7 L 17 6 L 7 6 z M 7 8 L 7 9 L 16 9 L 16 8 L 7 8 z M 7 10 L 7 11 L 17 11 L 17 10 L 7 10 z M 7 12 L 7 13 L 15 13 L 15 12 L 7 12 z M 7 14 L 7 15 L 17 15 L 17 14 L 7 14 z M 7 16 L 7 17 L 15 17 L 15 16 L 7 16 z"/>
 <path style="opacity:.2;fill:#ffffff" d="m5 2c-0.554 0-1 0.446-1 1v0.5c0-0.554 0.446-1 1-1h14c0.554 0 1 0.446 1 1v-0.5c0-0.554-0.446-1-1-1z"/>
 <path style="opacity:.2" d="m4 21v0.5c0 0.554 0.446 1 1 1h14c0.554 0 1-0.446 1-1v-0.5c0 0.554-0.446 1-1 1h-14c-0.554 0-1-0.446-1-1z"/>
</svg>
